X: 389
T: Big Mon
C:Bill Monroe
B: jims roots
M:4/4
L:1/8
Q: 1/4=100
K:A
V:1 
%Q:560
|: "A"[A2A2] AB cBAF | "G"=GFGA BAGF | "A"EFAB cdef | "E"=gfed "A"cB A2 |
"A"[A2A2] AB cBAF | "G"=GFGA BAGG | "A"EFAB cdef | "E"=gfed "A"c A3 :|
|: "A"[ae][a2e2][ae][a2e2] ef | =gfe=c BADF | EB,CE FGAB | "E"cBAc BG E2 |
"A"[ae][a2e2][ae][a2e2] ef | =gfe=c BADF | EB,CE FGAB | "E"cBAB "A"A4 :|
|: "A"A,CEC A,CEC | "G"=G,B,DB, =G,B,DB, | "A"A,CB,C EG FG | "E"AcBd "A"cB A2 |
"A"A,CEC A,CEC | "G"=G,B,DB, =G,B,DB, | "A"A,CB,C EG FG | "E"AcBc "A"A4 :|
% abcbook-tune_id 6298c2455d5bee0b1dd45017


% abcbook-boost 0
% abcbook-tablature 
% abcbook-transpose 
% abcbook-lastupdated 1654178373307
% abcbook-soundfonts 
% abcbook-repeats 1


